SF_Symbols/play.slash.fill.svg

<?xml version="1.0" encoding="UTF-8"?>
<svg xmlns="http://www.w3.org/2000/svg" xmlns:xlink="http://www.w3.org/1999/xlink" width="24" height="24" viewBox="0 0 24 24" version="1.1">
<g id="surface1">
<path style=" stroke:none;fill-rule:nonzero;fill:rgb(100%,100%,100%);fill-opacity:1;" d="M 14.691406 18.738281 L 3.402344 7.445312 L 3.402344 22.042969 C 3.402344 22.625 3.542969 23.089844 3.832031 23.4375 C 4.125 23.792969 4.519531 23.972656 5.007812 23.972656 C 5.277344 23.972656 5.53125 23.925781 5.773438 23.824219 C 6.011719 23.738281 6.269531 23.613281 6.535156 23.449219 Z M 19.417969 16.003906 L 22.152344 14.425781 C 22.714844 14.09375 23.101562 13.804688 23.316406 13.554688 C 23.539062 13.292969 23.652344 12.988281 23.652344 12.628906 C 23.652344 12.273438 23.539062 11.96875 23.316406 11.71875 C 23.101562 11.460938 22.714844 11.167969 22.152344 10.847656 L 6.535156 1.808594 C 6.292969 1.664062 6.066406 1.550781 5.851562 1.460938 C 5.648438 1.363281 5.429688 1.3125 5.195312 1.3125 C 5.132812 1.3125 5.082031 1.339844 5.035156 1.394531 C 5 1.4375 4.976562 1.496094 4.96875 1.566406 Z M 20.652344 22.417969 C 20.855469 22.625 21.101562 22.726562 21.386719 22.726562 C 21.675781 22.726562 21.914062 22.625 22.113281 22.417969 C 22.308594 22.214844 22.40625 21.972656 22.40625 21.695312 C 22.414062 21.410156 22.316406 21.164062 22.113281 20.960938 L 2.304688 1.164062 C 2.097656 0.96875 1.851562 0.871094 1.566406 0.871094 C 1.28125 0.863281 1.035156 0.960938 0.832031 1.164062 C 0.632812 1.363281 0.535156 1.605469 0.535156 1.902344 C 0.535156 2.1875 0.632812 2.429688 0.832031 2.625 Z M 20.652344 22.417969 "/>
</g>
</svg>

<svg xmlns="http://www.w3.org/2000/svg" width="24" height="24"><path style="stroke:none;fill-rule:nonzero;fill:#fff;fill-opacity:1" d="M14.691 18.738 3.402 7.445v14.598c0 .582.141 1.047.43 1.395.293.355.688.535 1.176.535.27 0 .523-.047.765-.149.239-.086.497-.21.762-.375Zm4.727-2.734 2.734-1.578c.563-.332.95-.621 1.164-.871.223-.262.336-.567.336-.926 0-.356-.113-.66-.336-.91-.214-.258-.601-.551-1.164-.871L6.535 1.808a5.11 5.11 0 0 0-.683-.347 1.521 1.521 0 0 0-.657-.149c-.062 0-.113.028-.16.083a.313.313 0 0 0-.066.171Zm1.234 6.414c.203.207.45.309.735.309.289 0 .527-.102.726-.309.192-.191.297-.453.293-.723a.958.958 0 0 0-.293-.734L2.305 1.164a1.046 1.046 0 0 0-.739-.293.958.958 0 0 0-.734.293c-.2.2-.297.441-.297.738 0 .286.098.528.297.723Zm0 0"/></svg>
